svg/OSM-icons/amenity #7bffff °373737 !label=enamenities,deEinrichtungen/12290;amenity=vending_machine;!#vending=excrement_bags;[vending_machine];!label=enexcr. bags machine,deHundekot- tüten.svg

<svg xmlns="http://www.w3.org/2000/svg" viewBox="0 0 580 580" enable-background="new 0 0 580 580"><path fill="#111" stroke="#eee" stroke-width="3.408" d="m66.28 1.768c-41.34 0-64.57 21.371-64.57 65.04v450.12c0 40.844 20.895 62.23 62.19 62.23h452.02c41.31 0 62.23-20.315 62.23-62.23v-450.12c0-42.601-20.925-65.04-63.52-65.04-.004 0-448.5-.143-448.35 0z"/><g fill="#fff"><path d="m44.5 34.5v343h201v-343h-201m167.5 35.5c3.59 0 6.5 2.91 6.5 6.5s-2.91 6.5-6.5 6.5-6.5-2.91-6.5-6.5 2.91-6.5 6.5-6.5m0 16.847c3.59 0 6.5 2.91 6.5 6.5s-2.91 6.5-6.5 6.5-6.5-2.91-6.5-6.5 2.91-6.5 6.5-6.5m0 16.846c3.59 0 6.5 2.91 6.5 6.5s-2.91 6.5-6.5 6.5-6.5-2.91-6.5-6.5 2.91-6.5 6.5-6.5m0 16.847c3.59 0 6.5 2.91 6.5 6.5s-2.91 6.5-6.5 6.5-6.5-2.91-6.5-6.5 2.91-6.5 6.5-6.5m0 16.847c3.59 0 6.5 2.91 6.5 6.5s-2.91 6.5-6.5 6.5-6.5-2.91-6.5-6.5 2.91-6.5 6.5-6.5m-13.5 207.11h-127v-282h127v282m38-176.5h-31v-6h31v6m-6.5-17.613c-3.59 0-6.5-2.91-6.5-6.5s2.91-6.5 6.5-6.5 6.5 2.91 6.5 6.5-2.91 6.5-6.5 6.5m0-16.847c-3.59 0-6.5-2.91-6.5-6.5s2.91-6.5 6.5-6.5 6.5 2.91 6.5 6.5-2.91 6.5-6.5 6.5m0-16.847c-3.59 0-6.5-2.91-6.5-6.5s2.91-6.5 6.5-6.5 6.5 2.91 6.5 6.5-2.91 6.5-6.5 6.5m0-16.846c-3.59 0-6.5-2.91-6.5-6.5s2.91-6.5 6.5-6.5 6.5 2.91 6.5 6.5-2.91 6.5-6.5 6.5m0-16.847c-3.59 0-6.5-2.91-6.5-6.5s2.91-6.5 6.5-6.5 6.5 2.91 6.5 6.5-2.91 6.5-6.5 6.5"/><path d="m79.83 299.17h112.67v38h-112.67z"/><path d="m79.83 90.85h112.67v5h-112.67z"/><path d="m79.83 118.04h112.67v5h-112.67z"/><path d="m79.83 145.23h112.67v5h-112.67z"/><path d="m79.83 172.43h112.67v5h-112.67z"/><path d="m79.83 199.62h112.67v5h-112.67z"/><path d="m79.83 226.81h112.67v5h-112.67z"/><path d="m79.83 254.01h112.67v5h-112.67z"/><path d="m380.65 281.63c0 0-168.57 181.85-50.52 220.11 92.67 30.03 160.11-1.144 175.49-27.28 36.861-62.64-88.08-194.9-94.25-192.83-6.161 2.072-30.727 0-30.727 0"/><path d="m385.87 265.85c0 0-61.16-75.64-52.885-74.45 8.273 1.182 31.909 23.637 40.18 17.728 8.272-5.909-10.637-16.574 11.818-17.742 22.454-1.168 21.272 28.378 21.272 28.378s17.728-29.64 24.818-28.411c7.092 1.229 13.315 13.05 11.03 22.502-1.688 6.988-30.728 52-30.728 52h-25.508"/></g></svg>

<?xml version="1.0" encoding="utf-8"?>
<!-- Generator: Adobe Illustrator 15.0.0, SVG Export Plug-In . SVG Version: 6.00 Build 0)  -->
<!DOCTYPE svg PUBLIC "-//W3C//DTD SVG 1.1//EN" "http://www.w3.org/Graphics/SVG/1.1/DTD/svg11.dtd">
<svg version="1.1" xmlns="http://www.w3.org/2000/svg" xmlns:xlink="http://www.w3.org/1999/xlink" x="0px" y="0px" width="580px"
	 height="580px" viewBox="0 0 580 580" enable-background="new 0 0 580 580" xml:space="preserve">
<g id="Layer_1">
	<g id="Layer_1_1_">
		<g id="Layer_2">
			<g id="g1327">
				<path id="path1329" fill="#111111" stroke="#EEEEEE" stroke-width="3.408" d="M66.275,1.768
					c-41.335,0-64.571,21.371-64.571,65.036v450.123c0,40.844,20.895,62.229,62.192,62.229H515.92
					c41.307,0,62.229-20.315,62.229-62.229V66.804c0-42.601-20.925-65.036-63.521-65.036C514.624,1.768,66.133,1.625,66.275,1.768z"
					/>
			</g>
		</g>
	</g>
</g>
<g id="Layer_2_1_">
	<g>
		<path fill="#FFFFFF" d="M44.5,34.5v343h201v-343H44.5z M212,70c3.59,0,6.5,2.91,6.5,6.5S215.59,83,212,83s-6.5-2.91-6.5-6.5
			S208.41,70,212,70z M212,86.847c3.59,0,6.5,2.91,6.5,6.5s-2.91,6.5-6.5,6.5s-6.5-2.91-6.5-6.5S208.41,86.847,212,86.847z
			 M212,103.693c3.59,0,6.5,2.91,6.5,6.5s-2.91,6.5-6.5,6.5s-6.5-2.91-6.5-6.5S208.41,103.693,212,103.693z M212,120.54
			c3.59,0,6.5,2.91,6.5,6.5s-2.91,6.5-6.5,6.5s-6.5-2.91-6.5-6.5S208.41,120.54,212,120.54z M212,137.387c3.59,0,6.5,2.91,6.5,6.5
			s-2.91,6.5-6.5,6.5s-6.5-2.91-6.5-6.5S208.41,137.387,212,137.387z M198.5,344.5h-127v-282h127V344.5z M236.5,168h-31v-6h31V168z
			 M230,150.387c-3.59,0-6.5-2.91-6.5-6.5s2.91-6.5,6.5-6.5s6.5,2.91,6.5,6.5S233.59,150.387,230,150.387z M230,133.54
			c-3.59,0-6.5-2.91-6.5-6.5s2.91-6.5,6.5-6.5s6.5,2.91,6.5,6.5S233.59,133.54,230,133.54z M230,116.693c-3.59,0-6.5-2.91-6.5-6.5
			s2.91-6.5,6.5-6.5s6.5,2.91,6.5,6.5S233.59,116.693,230,116.693z M230,99.847c-3.59,0-6.5-2.91-6.5-6.5s2.91-6.5,6.5-6.5
			s6.5,2.91,6.5,6.5S233.59,99.847,230,99.847z M230,83c-3.59,0-6.5-2.91-6.5-6.5s2.91-6.5,6.5-6.5s6.5,2.91,6.5,6.5
			S233.59,83,230,83z"/>
		<rect x="79.833" y="299.166" fill="#FFFFFF" width="112.667" height="38"/>
		<g>
			<rect x="79.833" y="90.847" fill="#FFFFFF" width="112.667" height="5"/>
		</g>
		<g>
			<rect x="79.833" y="118.04" fill="#FFFFFF" width="112.667" height="5"/>
		</g>
		<g>
			<rect x="79.833" y="145.233" fill="#FFFFFF" width="112.667" height="5"/>
		</g>
		<g>
			<rect x="79.833" y="172.427" fill="#FFFFFF" width="112.667" height="5"/>
		</g>
		<g>
			<rect x="79.833" y="199.62" fill="#FFFFFF" width="112.667" height="5"/>
		</g>
		<g>
			<rect x="79.833" y="226.813" fill="#FFFFFF" width="112.667" height="5"/>
		</g>
		<g>
			<rect x="79.833" y="254.007" fill="#FFFFFF" width="112.667" height="5"/>
		</g>
	</g>
	<path fill="#FFFFFF" d="M380.649,281.626c0,0-168.574,181.854-50.519,220.109c92.671,30.029,160.112-1.144,175.492-27.281
		c36.861-62.645-88.084-194.899-94.246-192.828C405.215,283.698,380.649,281.626,380.649,281.626z"/>
	<path fill="#FFFFFF" d="M385.867,265.853c0,0-61.157-75.637-52.885-74.455c8.273,1.182,31.909,23.637,40.183,17.728
		c8.272-5.909-10.637-16.574,11.818-17.742c22.454-1.168,21.272,28.378,21.272,28.378s17.728-29.64,24.818-28.411
		c7.092,1.229,13.315,13.047,11.03,22.502c-1.688,6.988-30.728,52-30.728,52H385.867z"/>
</g>
</svg>
